images/linkedin.svg

<svg xmlns="http://www.w3.org/2000/svg" width="24" height="24" viewBox="0 0 24 24"><path d="M12 2c5.514 0 10 4.486 10 10s-4.486 10-10 10-10-4.486-10-10 4.486-10 10-10zm0-2c-6.627 0-12 5.373-12 12s5.373 12 12 12 12-5.373 12-12-5.373-12-12-12zm-2 8c0 .557-.447 1.008-1 1.008s-1-.45-1-1.008c0-.557.447-1.008 1-1.008s1 .452 1 1.008zm0 2h-2v6h2v-6zm3 0h-2v6h2v-2.861c0-1.722 2.002-1.881 2.002 0v2.861h1.998v-3.359c0-3.284-3.128-3.164-4-1.548v-1.093z"/></svg>

<svg width="24" height="24" viewBox="0 0 24 24" fill="none" xmlns="http://www.w3.org/2000/svg">
<path d="M12 2C17.514 2 22 6.486 22 12C22 17.514 17.514 22 12 22C6.486 22 2 17.514 2 12C2 6.486 6.486 2 12 2ZM12 0C5.373 0 0 5.373 0 12C0 18.627 5.373 24 12 24C18.627 24 24 18.627 24 12C24 5.373 18.627 0 12 0ZM10 8C10 8.557 9.553 9.008 9 9.008C8.447 9.008 8 8.558 8 8C8 7.443 8.447 6.992 9 6.992C9.553 6.992 10 7.444 10 8V8ZM10 10H8V16H10V10ZM13 10H11V16H13V13.139C13 11.417 15.002 11.258 15.002 13.139V16H17V12.641C17 9.357 13.872 9.477 13 11.093V10Z" fill="url(#paint0_linear)"/>
<defs>
<linearGradient id="paint0_linear" x1="-3.81177" y1="28.3765" x2="24" y2="1.0529e-06" gradientUnits="userSpaceOnUse">
<stop stop-color="#5AEDED"/>
<stop offset="1" stop-color="#6596F6" stop-opacity="0.79"/>
</linearGradient>
</defs>
</svg>
